X:32
T:Harvest Home
Z: id:dc-hornpipe-29
M:C|
L:1/8
K:D Major
AF|DAFA DAFA|defe dcBA|eAfA gAfA|(3efe (3dcB (3ABA (3GFE|!
DAFA DAFA|defe dcBA|eAfA gece|d2dc d2:|!
cd|eA (3AAA fA (3AAA|gAfA eA (3AAA|eAfA gAfA|(3efe (3dcB (3ABA (3GFE|!
DAFA DAFA|defe dcBA|eAfA gece|d2dc d2:|!

